X:1
T:Black Hills, 75.75.77.75
T:Black Hills, 75.75.77.75
T:Peter Philip Bilhorn, 1889
T:Public Domain Courtesy of the Cyber Hymnal™
C:Peter Philip Bilhorn, 1889
Z:Public Domain
Z:Courtesy of the Cyber Hymnal™
%%score ( 1 2 ) ( 3 4 )
L:1/8
Q:1/4=105
M:6/8
K:F
V:1 treble 
V:2 treble 
V:3 bass 
V:4 bass 
V:1
 [CF]2 [EG] [FA]2 [Fd] | [Fc]2 [F=B] [Fc]3 | [CF]2 [CF] [FA]2 [FG] | [EG]3- [EG]2 z | %4
 [CF]2 [EG] [FA]2 [Fd] | [Fc]2 [F=B] [Fc]3 | F2 F [FA]2 [EG] | [CF]3- [CF]2 z | %8
 [DB]2 [DB] [DB]2 [Fd] | [Fd]2 [Fc] [Fc]2 z | [Fc]2 [EB] [EB]2 [Bd] | [Ac]2 [GB] [FA]2 z | %12
 [FA]2 [FA] [FA]2 [FA] | [EB]2 [_Ec] !fermata![Dd]3 | [Fc]2 [FA] [CF]2 [CG] | [CF]3- [CF]2 z |] %16
V:2
 x6 | x6 | x6 | x6 | x6 | x6 | F2 F x3 | x6 | x6 | x6 | x6 | x6 | x6 | x6 | x6 | x6 |] %16
V:3
 [F,A,]2 [C,C] [F,C]2 [F,B,] | [F,A,]2 [F,^G,] [F,A,]3 | [F,A,]2 [F,A,] [G,,=B,]2 [G,,B,] | %3
 [C,-C]3 [C,B,]2 z | [F,A,]2 [C,C] [F,C]2 [F,B,] | [F,A,]2 [F,^G,] [F,A,]3 | %6
 [D,=B,]2 [D,B,] [C,C]2 [C,_B,] | [F,A,]3- [F,A,]2 z | [B,,B,]2 [B,,B,] [B,,B,]2 [B,,B,] | %9
 [F,B,]2 [F,A,] [F,A,]2 z | [F,A,]2 [G,C] [G,C]2 [C,C] | [C,C]2 [E,C] [F,C]2 z | %12
 [D,D]2 [D,A,] [D,A,]2 [D,F,] | [C,G,]2 F, !fermata![B,,F,]3 | [C,A,]2 [C,C] [C,A,]2 [C,B,] | %15
 [F,A,]3- [F,A,]2 z |] %16
V:4
 x6 | x6 | x6 | x6 | x6 | x6 | x6 | x6 | x6 | x6 | x6 | x6 | x6 | x2 F, x3 | x6 | x6 |] %16

